icons/lines/solana--sol-.svg

<svg xmlns="http://www.w3.org/2000/svg" width="24" height="24" viewBox="0 0 24 24" fill="none" stroke="currentColor" stroke-width="2" stroke-linecap="round" stroke-linejoin="round" >
  <path d="M20.0002 3.5H5.50019C5.20019 3.5 4.90019 3.6 4.70019 3.9L3.20019 5.9C2.70019 6.6 3.20019 7.5 4.00019 7.5H18.5002C18.8002 7.5 19.1002 7.4 19.3002 7.1L20.8002 5.1C21.3002 4.4 20.8002 3.5 20.0002 3.5Z" stroke-miterlimit="10"/>
  <path d="M4.00019 10H18.5002C18.8002 10 19.1002 10.1 19.3002 10.4L20.8002 12.4C21.3002 13.1 20.8002 14 20.0002 14H5.50019C5.20019 14 4.90019 13.9 4.70019 13.6L3.20019 11.6C2.70019 10.9 3.20019 10 4.00019 10Z" stroke-miterlimit="10"/>
  <path d="M20.0002 16.5H5.50019C5.20019 16.5 4.90019 16.6 4.70019 16.9L3.20019 18.9C2.70019 19.6 3.20019 20.5 4.00019 20.5H18.5002C18.8002 20.5 19.1002 20.4 19.3002 20.1L20.8002 18.1C21.3002 17.4 20.8002 16.5 20.0002 16.5Z" stroke-miterlimit="10"/>
  </svg>

<svg xmlns="http://www.w3.org/2000/svg" width="24" height="24" viewBox="0 0 24 24" fill="none" stroke="currentColor" stroke-width="2" stroke-linecap="round" stroke-linejoin="round">
  <path d="M18.5 10a1 1 0 0 1 .8.4l1.5 2A1 1 0 0 1 20 14H5.5a1 1 0 0 1-.8-.4l-1.5-2A1 1 0 0 1 4 10z" />
  <path d="M5.5 16.5a1 1 0 0 0-.8.4l-1.5 2a1 1 0 0 0 .8 1.6h14.5a1 1 0 0 0 .8-.4l1.5-2a1 1 0 0 0-.8-1.6z" />
  <path d="M5.5 3.5a1 1 0 0 0-.8.4l-1.5 2A1 1 0 0 0 4 7.5h14.5a1 1 0 0 0 .8-.4l1.5-2a1 1 0 0 0-.8-1.6z" />
</svg>
